build/img-landing/svg/cap1.svg

<svg width="49" height="75" viewBox="0 0 49 75" fill="none" xmlns="http://www.w3.org/2000/svg">
<path d="M41.2126 43.7894C43.2204 29.1585 38.4517 13.9518 27.5708 3.0561L24.5147 0L21.4586 3.0561C10.563 13.9518 5.79426 29.1585 7.80214 43.7894C2.8858 48.4104 0.065918 54.8474 0.065918 61.5797C0.065918 63.4104 0.287375 65.2854 0.730288 67.19L1.60135 70.8809L3.0482 67.3819C4.79033 63.1742 7.80214 59.5423 11.5817 56.9882C12.187 58.3317 12.8514 59.6604 13.6043 60.9744L13.9586 61.5945H35.0413L35.3956 60.9744C36.1338 59.6752 36.7982 58.3465 37.4035 57.003C41.183 59.5571 44.1949 63.189 45.937 67.3967L47.3986 70.8661L48.2697 67.1752C48.7126 65.2854 48.934 63.3957 48.934 61.565C48.9488 54.8474 46.1289 48.3957 41.2126 43.7894ZM23.2008 4.78346L24.5295 3.45472L25.8582 4.78346C28.2943 7.21949 30.4055 9.89173 32.1919 12.7264H16.8671C18.6535 9.89173 20.75 7.21949 23.2008 4.78346ZM2.57576 62.9675C2.54623 62.4951 2.53147 62.0374 2.53147 61.5797C2.53147 56.0876 4.61316 50.8022 8.31887 46.7569C8.36316 46.9636 8.42222 47.185 8.46651 47.3917C8.54033 47.7461 8.61415 48.1004 8.70273 48.44C8.76178 48.7205 8.8356 48.9862 8.90942 49.2667C9.01277 49.6654 9.11612 50.0492 9.23423 50.4478C9.30805 50.6988 9.38186 50.9498 9.45568 51.2008C9.57379 51.5994 9.70667 51.998 9.83954 52.3967C9.92812 52.6476 10.0019 52.8986 10.0905 53.1496C10.2234 53.5335 10.3563 53.9026 10.5039 54.2864C10.5334 54.3898 10.5777 54.5226 10.6368 54.6703C7.35923 56.7815 4.5984 59.6457 2.57576 62.9675ZM38.2008 46.875C38.0236 47.6722 37.8317 48.4695 37.6102 49.2667C37.5659 49.4291 37.5216 49.5915 37.4773 49.7687C37.2559 50.5217 37.0344 51.2746 36.7834 52.0128C36.7687 52.0571 36.7539 52.1161 36.7391 52.1604C36.4734 52.9429 36.1634 53.7254 35.8533 54.4931C35.1889 56.0581 34.4655 57.6083 33.6388 59.1289H15.4055C14.5787 57.6083 13.8405 56.0581 13.2057 54.4931C12.8956 53.7254 12.6004 52.9429 12.3199 52.1604C12.3051 52.1014 12.2903 52.0423 12.2608 51.998C12.0098 51.2598 11.7884 50.5217 11.5669 49.7687C11.5226 49.5915 11.4636 49.4291 11.4193 49.252C11.2126 48.4695 11.0059 47.687 10.8287 46.8898C10.7992 46.7569 10.7697 46.624 10.7549 46.4764C10.622 45.8268 10.5039 45.1919 10.4006 44.5423C8.77655 34.5177 10.5334 24.1388 15.4202 15.1772H33.6092C38.496 24.1388 40.2382 34.4882 38.6289 44.5128C38.5256 45.1919 38.3927 45.8711 38.2598 46.5502C38.2303 46.6535 38.2155 46.7717 38.2008 46.875ZM46.4537 62.9528C44.4311 59.6309 41.6702 56.7815 38.3927 54.6555C38.4517 54.5226 38.496 54.375 38.5403 54.2421C38.6732 53.873 38.8208 53.5039 38.9389 53.1348C39.0275 52.8691 39.1309 52.6033 39.2195 52.3228C39.3376 51.9537 39.4557 51.5846 39.5738 51.2156C39.6624 50.935 39.751 50.6545 39.8248 50.374C39.9281 50.0197 40.0167 49.6654 40.1053 49.311C40.1791 49.001 40.2677 48.6909 40.3415 48.3809C40.4153 48.0561 40.4891 47.7461 40.563 47.4213C40.6073 47.185 40.6663 46.9636 40.7106 46.7421C44.4015 50.7874 46.498 56.0728 46.498 61.565C46.498 62.0226 46.4832 62.4951 46.4537 62.9528Z" fill="#E30613"/>
<path d="M24.5147 20.0492C20.4695 20.0492 17.1919 23.3415 17.1919 27.3721C17.1919 31.4026 20.4695 34.6949 24.5147 34.6949C28.56 34.6949 31.8376 31.4026 31.8376 27.3721C31.8376 23.3415 28.56 20.0492 24.5147 20.0492ZM24.5147 32.2589C21.8277 32.2589 19.6279 30.0738 19.6279 27.3721C19.6279 24.6703 21.813 22.4852 24.5147 22.4852C27.2017 22.4852 29.4015 24.6703 29.4015 27.3721C29.4015 30.0738 27.2017 32.2589 24.5147 32.2589Z" fill="#E30613"/>
<path d="M25.7253 40.8071H23.2893V43.2431H25.7253V40.8071Z" fill="#E30613"/>
<path d="M25.7253 45.6939H23.2893V48.1299H25.7253V45.6939Z" fill="#E30613"/>
<path d="M25.7253 50.5807H23.2893V53.0167H25.7253V50.5807Z" fill="#E30613"/>
<path d="M25.7253 64.0157H23.2893V71.3386H25.7253V64.0157Z" fill="#E30613"/>
<path d="M18.4026 67.6772H15.9666V75H18.4026V67.6772Z" fill="#E30613"/>
<path d="M33.063 67.6772H30.627V75H33.063V67.6772Z" fill="#E30613"/>
</svg>

<svg width="49" height="75" viewBox="0 0 49 75" fill="none" xmlns="http://www.w3.org/2000/svg"><path d="M41.213 43.79C43.22 29.158 38.452 13.951 27.57 3.055L24.515 0l-3.056 3.056C10.563 13.952 5.794 29.158 7.802 43.79 2.886 48.41.066 54.847.066 61.58c0 1.831.221 3.706.664 5.611l.871 3.69 1.447-3.498c1.742-4.208 4.754-7.84 8.534-10.394a45.966 45.966 0 0 0 2.022 3.986l.355.62H35.04l.355-.62a47.656 47.656 0 0 0 2.008-3.971c3.779 2.554 6.79 6.186 8.533 10.394l1.462 3.47.87-3.692c.444-1.89.665-3.78.665-5.61.015-6.718-2.805-13.17-7.721-17.776zM23.2 4.782l1.328-1.328 1.33 1.328a45.614 45.614 0 0 1 6.333 7.943H16.867a44.936 44.936 0 0 1 6.334-7.943zM2.576 62.967a22.13 22.13 0 0 1-.045-1.387A21.963 21.963 0 0 1 8.32 46.757c.044.207.103.428.148.635.073.354.147.708.236 1.048.059.28.133.546.206.827.104.398.207.782.325 1.18l.222.754c.118.398.25.797.384 1.196.088.25.162.502.25.753.133.383.266.753.414 1.136.03.104.074.237.133.384a25.91 25.91 0 0 0-8.061 8.297zM38.2 46.876a48.75 48.75 0 0 1-.59 2.392c-.045.162-.09.325-.134.502a56.334 56.334 0 0 1-.694 2.244l-.044.147a44.39 44.39 0 0 1-.886 2.333 53.164 53.164 0 0 1-2.214 4.636H15.405a45.628 45.628 0 0 1-2.2-4.636 62.2 62.2 0 0 1-.885-2.333.519.519 0 0 0-.06-.162 55.804 55.804 0 0 1-.693-2.23c-.044-.176-.103-.339-.148-.516-.206-.783-.413-1.565-.59-2.362-.03-.133-.06-.266-.074-.414a46.082 46.082 0 0 1 4.665-31.3h18.19a46.09 46.09 0 0 1 5.019 29.337 49.07 49.07 0 0 1-.37 2.037c-.029.104-.044.222-.058.325zm8.253 16.078a26.06 26.06 0 0 0-8.061-8.297c.059-.133.103-.281.147-.414.133-.369.28-.738.399-1.107.089-.266.192-.532.28-.812l.355-1.107c.088-.281.177-.562.25-.842.104-.354.193-.709.281-1.063.074-.31.163-.62.237-.93.073-.325.147-.635.221-.96.044-.236.103-.457.148-.679 3.69 4.045 5.787 9.33 5.787 14.823 0 .458-.015.93-.044 1.388z" fill="#E30613"/><path d="M24.515 20.05c-4.046 0-7.323 3.291-7.323 7.322 0 4.03 3.277 7.323 7.323 7.323 4.045 0 7.323-3.292 7.323-7.323 0-4.03-3.278-7.323-7.323-7.323zm0 12.209a4.893 4.893 0 0 1-4.887-4.887 4.883 4.883 0 0 1 4.887-4.887 4.893 4.893 0 0 1 4.886 4.887c0 2.702-2.2 4.887-4.886 4.887zm1.21 8.548H23.29v2.436h2.436v-2.436zm0 4.887H23.29v2.436h2.436v-2.436zm0 4.886H23.29v2.437h2.436V50.58zm0 13.436H23.29v7.323h2.436v-7.323zm-7.322 3.661h-2.436V75h2.436v-7.323zm14.66 0h-2.436V75h2.436v-7.323z" fill="#E30613"/></svg>
